www/assets/icons/send_and_archive.svg

<svg xmlns="http://www.w3.org/2000/svg" width="24" height="24" viewBox="0 0 24 24" fill='currentColor'><path d="M20.5 9h-3l-16-7v7l9 2-9 2v7l8-3.5V20c0 1.1.9 2 2 2h9c1.1 0 2-.9 2-2v-9c0-1.1-.9-2-2-2m0 11h-9v-9h9zM16 19l-3.5-4h2v-3h3v3h2z"/></svg>

<svg width="24" height="24" viewBox="0 0 24 24" xmlns="http://www.w3.org/2000/svg" fill='currentColor'><path d="M20.5 9H17.5L1.5 2V9L10.5 11L1.5 13V20L9.5 16.5V20C9.5 21.1 10.4 22 11.5 22H20.5C21.6 22 22.5 21.1 22.5 20V11C22.5 9.9 21.6 9 20.5 9ZM20.5 20H11.5V11H20.5V20ZM16 19L12.5 15H14.5V12H17.5V15H19.5L16 19Z"/></svg>
